tools/download-figma-icons/icons/outlined-medium/power-gas.svg

<svg width="24" height="24" viewBox="0 0 24 24" fill="none" xmlns="http://www.w3.org/2000/svg">
<path fill-rule="evenodd" clip-rule="evenodd" d="M7.22907 13.7676L6.5001 14.6368V9.75003C6.5001 9.3353 6.16486 9.00006 5.75013 9.00006H1.78054L6.99958 1.92335V6.75016C6.99958 7.16489 7.33482 7.50013 7.74955 7.50013H12.7496C13.1643 7.50013 13.4996 7.16489 13.4996 6.75016C13.4996 6.33542 13.1643 6.00019 12.7496 6.00019H8.49952V1.30763C8.49952 0.730151 8.13503 0.229171 7.59206 0.059678C7.05133 -0.111315 6.4641 0.0949265 6.14612 0.553158L0.231856 8.57333C-0.036633 8.96182 -0.0741315 9.42905 0.13211 9.82353C0.350351 10.2413 0.808583 10.5 1.32831 10.5H5.00016V15.1926C5.00016 15.7693 5.36465 16.271 5.90762 16.4405C6.03662 16.4818 6.16861 16.5005 6.29836 16.5005C6.71309 16.5005 7.10533 16.304 7.32432 15.9845L8.37727 14.7328C8.64351 14.4163 8.60302 13.9431 8.28578 13.6761C7.96854 13.4106 7.49681 13.4511 7.22907 13.7676ZM21.9261 13.8823C20.8034 12.3832 19.5307 10.683 19.0912 8.12333C19.047 7.86684 18.8745 7.65234 18.6337 7.55485C18.3945 7.45735 18.1185 7.4911 17.9093 7.64485C17.1481 8.20207 16.4783 8.75105 15.8619 9.32253C15.5581 9.60377 15.5401 10.0785 15.8214 10.3822C16.1026 10.686 16.5766 10.7047 16.8811 10.4227C17.1961 10.1302 17.5268 9.84451 17.88 9.55952C18.519 11.8327 19.7272 13.4474 20.7262 14.7816C21.7049 16.088 22.4773 17.12 22.4983 18.3349C22.5336 20.3111 21.5391 21.3783 20.6407 21.9385C20.6669 21.5718 20.6257 21.1713 20.4659 20.7603C20.2514 20.2106 19.8224 19.7884 19.407 19.3796L19.4068 19.3794L19.4067 19.3794C18.7124 18.697 18.1125 18.1076 18.3503 16.97C18.4148 16.6617 18.279 16.3452 18.0113 16.1787C17.7428 16.013 17.4 16.0325 17.1518 16.2275C15.6819 17.3862 14.8779 18.7009 14.7601 20.1363C14.7054 20.8076 14.8104 21.4195 14.9806 21.9408C13.9232 21.3565 12.7487 20.1866 12.7495 17.8722V17.249C12.7495 16.8342 12.4142 16.499 11.9995 16.499C11.5848 16.499 11.2495 16.8342 11.2495 17.249V17.8722C11.248 22.2587 14.6597 23.7939 16.4626 23.9942C16.7633 24.0234 17.0671 23.8674 17.2103 23.5907C17.3528 23.3147 17.3093 22.978 17.1016 22.7462L17.1013 22.7459C17.0799 22.7214 16.1341 21.6358 16.2556 20.2436C16.3066 19.6511 16.5451 19.0736 16.9636 18.5172C17.2538 19.3661 17.8605 19.9631 18.354 20.4476C18.6705 20.7588 18.969 21.0535 19.0672 21.304C19.3492 22.0263 18.792 22.789 18.7897 22.792C18.6015 23.038 18.5842 23.3747 18.7447 23.6394C18.8827 23.8652 19.1265 23.9987 19.3852 23.9987C19.4295 23.9987 19.4745 23.9949 19.5195 23.9867C21.0974 23.6994 24.0643 22.144 23.9968 18.3079C23.966 16.6077 22.9753 15.284 21.9246 13.8816L21.9261 13.8823ZM11.9995 15.0004C11.5848 15.0004 11.2495 14.6651 11.2495 14.2504V12.7505H9.7496C9.33487 12.7505 8.99963 12.4152 8.99963 12.0005C8.99963 11.5858 9.33487 11.2505 9.7496 11.2505H11.2495V9.75058C11.2495 9.33585 11.5848 9.00061 11.9995 9.00061C12.4142 9.00061 12.7495 9.33585 12.7495 9.75058V11.2505H14.2494C14.6642 11.2505 14.9994 11.5858 14.9994 12.0005C14.9994 12.4152 14.6642 12.7505 14.2494 12.7505H12.7495V14.2504C12.7495 14.6651 12.4142 15.0004 11.9995 15.0004Z" fill="black"/>
</svg>

<svg xmlns="http://www.w3.org/2000/svg" width="24" height="24" fill="none" viewBox="0 0 24 24"><path fill="currentColor" fill-rule="evenodd" d="m7.23 13.768-.73.869V9.75A.75.75 0 0 0 5.75 9H1.78L7 1.923V6.75c0 .415.335.75.75.75h5a.75.75 0 1 0 0-1.5H8.5V1.308C8.5.73 8.135.229 7.592.06a1.29 1.29 0 0 0-1.446.493L.232 8.573c-.269.389-.306.856-.1 1.25.218.418.677.677 1.196.677H5v4.693A1.297 1.297 0 0 0 6.298 16.5c.415 0 .807-.196 1.026-.515l1.053-1.252a.75.75 0 0 0-1.148-.965m14.696.114c-1.123-1.499-2.395-3.199-2.835-5.759a.75.75 0 0 0-1.182-.478 23 23 0 0 0-2.047 1.678.75.75 0 0 0 1.02 1.1q.47-.437.998-.863c.639 2.273 1.847 3.887 2.846 5.222.979 1.306 1.751 2.338 1.772 3.553.036 1.976-.959 3.043-1.857 3.604a2.7 2.7 0 0 0-.175-1.179c-.215-.55-.644-.972-1.059-1.38-.695-.683-1.294-1.272-1.057-2.41a.752.752 0 0 0-1.198-.742c-1.47 1.158-2.274 2.473-2.392 3.908-.055.672.05 1.284.22 1.805-1.057-.584-2.231-1.754-2.23-4.069v-.623a.75.75 0 1 0-1.5 0v.623c-.002 4.387 3.41 5.922 5.213 6.122.3.03.604-.127.747-.403a.75.75 0 0 0-.108-.845c-.022-.025-.968-1.11-.846-2.502.05-.593.29-1.17.708-1.727.29.85.896 1.446 1.39 1.93.317.312.615.607.713.857.282.722-.275 1.485-.277 1.488a.75.75 0 0 0 .73 1.195c1.577-.288 4.544-1.843 4.477-5.68-.031-1.7-1.022-3.023-2.072-4.425zM12 15a.75.75 0 0 1-.75-.75v-1.5h-1.5a.75.75 0 1 1 0-1.5h1.5v-1.5a.75.75 0 1 1 1.5 0v1.5h1.5a.75.75 0 1 1 0 1.5h-1.5v1.5A.75.75 0 0 1 12 15" clip-rule="evenodd"/></svg>
